X:5812
T:Gan Ainm
R:Reel
C:
S:
H:
N:
D:
Z:Adrian Scahill
M:4/4
L:1/8
K:G
G2(3Bcd GdBd|GdBd cAAd|D2FA dAFA|d2fd cAFA|\
G2(3Bcd GdBd|GdBd cAAd|DEFG AB (3cBA|dcAF G3F:||\
GABd gfag|fdd2 afd2|DE=FA c3d|edd2 cAFA|\
GABd gfag|fdd2 afde|=f3e fedc|AGFA G3F:||


